content/fr/images/chapitre12/download.svg

<svg height="1000" width="928.6" xmlns="http://www.w3.org/2000/svg"><path d="m714.3 750c0-19.5-16.2-35.7-35.7-35.7s-35.7 16.2-35.7 35.7 16.1 35.7 35.7 35.7 35.7-16.2 35.7-35.7z m142.8 0c0-19.5-16.1-35.7-35.7-35.7s-35.7 16.2-35.7 35.7 16.2 35.7 35.7 35.7 35.7-16.2 35.7-35.7z m71.5-125v178.6c0 29.5-24 53.5-53.6 53.5h-821.4c-29.6 0-53.6-24-53.6-53.5v-178.6c0-29.6 24-53.6 53.6-53.6h259.5l75.3 75.9c20.6 20.1 47.4 31.3 75.9 31.3s55.2-11.2 75.9-31.3l75.9-75.9h258.9c29.6 0 53.6 24 53.6 53.6z m-181.4-317.5c5.6 13.4 2.8 29-7.8 39l-250 250c-6.7 7.3-16.2 10.6-25.1 10.6s-18.4-3.3-25.1-10.6l-250-250c-10.6-10-13.4-25.6-7.8-39 5.5-12.9 18.4-21.8 32.9-21.8h142.8v-250c0-19.5 16.2-35.7 35.8-35.7h142.8c19.5 0 35.7 16.2 35.7 35.7v250h142.9c14.5 0 27.3 8.9 32.9 21.8z" /></svg>

<?xml version="1.0" encoding="utf-8"?>
<!-- Generator: Adobe Illustrator 23.0.6, SVG Export Plug-In . SVG Version: 6.00 Build 0)  -->
<svg version="1.1" id="Calque_1" xmlns="http://www.w3.org/2000/svg" xmlns:xlink="http://www.w3.org/1999/xlink" x="0px" y="0px"
	 viewBox="0 0 928.6 1000" style="enable-background:new 0 0 928.6 1000;" xml:space="preserve">
<style type="text/css">
	.st0{fill:#688ED8;}
</style>
<path class="st0" d="M714.3,750c0-19.5-16.2-35.7-35.7-35.7s-35.7,16.2-35.7,35.7s16.1,35.7,35.7,35.7S714.3,769.5,714.3,750z
	 M857.1,750c0-19.5-16.1-35.7-35.7-35.7s-35.7,16.2-35.7,35.7s16.2,35.7,35.7,35.7S857.1,769.5,857.1,750z M928.6,625v178.6
	c0,29.5-24,53.5-53.6,53.5H53.6C24,857.1,0,833.1,0,803.6V625c0-29.6,24-53.6,53.6-53.6h259.5l75.3,75.9
	c20.6,20.1,47.4,31.3,75.9,31.3s55.2-11.2,75.9-31.3l75.9-75.9H875C904.6,571.4,928.6,595.4,928.6,625z M747.2,307.5
	c5.6,13.4,2.8,29-7.8,39l-250,250c-6.7,7.3-16.2,10.6-25.1,10.6s-18.4-3.3-25.1-10.6l-250-250c-10.6-10-13.4-25.6-7.8-39
	c5.5-12.9,18.4-21.8,32.9-21.8h142.8v-250c0-19.5,16.2-35.7,35.8-35.7h142.8c19.5,0,35.7,16.2,35.7,35.7v250h142.9
	C728.8,285.7,741.6,294.6,747.2,307.5z"/>
</svg>
